src/travel-places/sky-weather/1F329.svg

<svg id="emoji" viewBox="0 0 72 72" xmlns="http://www.w3.org/2000/svg">
  <g id="grid">
    <path fill="#b3b3b3" d="M68,4V68H4V4H68m4-4H0V72H72V0Z"/>
    <path fill="none" stroke="#00a5ff" stroke-miterlimit="10" stroke-width="0.1" d="M12.923,10.9583H59.0769A1.9231,1.9231,0,0,1,61,12.8814V59.0352a1.9231,1.9231,0,0,1-1.9231,1.9231H12.9231A1.9231,1.9231,0,0,1,11,59.0352V12.8813A1.923,1.923,0,0,1,12.923,10.9583Z"/>
    <rect x="16" y="4" rx="2.2537" width="40" height="64" fill="none" stroke="#00a5ff" stroke-miterlimit="10" stroke-width="0.1"/>
    <rect x="16" y="4" rx="2.2537" width="40" height="64" transform="translate(72) rotate(90)" fill="none" stroke="#00a5ff" stroke-miterlimit="10" stroke-width="0.1"/>
    <circle cx="36" cy="36" r="29" fill="none" stroke="#00a5ff" stroke-miterlimit="10" stroke-width="0.1"/>
  </g>
  <g id="color">
    <path fill="#FCEA2B" stroke="none" d="M31.0827,42.8817l-3.7893,6.7541c-0.2732,0.2863-0.0517,0.7346,0.3629,0.7346h8.4435l-5.845,9.2144 c-0.3172,0.5,0.3444,1.0389,0.7699,0.6271l13.669-13.2268c0.2916-0.2821,0.0737-0.7475-0.35-0.7475h-8.1735l1.5388-3.3558 L31.0827,42.8817z"/>
    <path fill="#d0cfce" stroke="none" d="M19.2787,22.469c-0.031,0.3535-0.3174,0.6396-0.6721,0.6775C14.307,23.6072,11,27.8408,11,32.994 c0,5.4608,3.7871,9.8877,8.4588,9.8877h32.248c5.1325,0,9.2932-4.6783,9.2932-10.4492c0-5.5305-3.8212-10.0575-8.6569-10.4251 c-0.37-0.0281-0.67-0.2871-0.7406-0.6494c-1.0803-5.5472-6.0636-9.7159-11.9553-9.7159c-3.829,0-7.2399,1.7335-9.4549,4.4912 c-0.2164,0.2695-0.5797,0.3929-0.8992,0.2589c-0.8523-0.3575-1.7525-0.5304-2.7597-0.5304 C22.7272,15.8618,19.6031,18.7665,19.2787,22.469z"/>
  </g>
  <g id="hair"/>
  <g id="skin"/>
  <g id="skin-shadow"/>
  <g id="line">
    <path fill="none" stroke="#000000" stroke-linecap="round" stroke-linejoin="round" stroke-miterlimit="10" stroke-width="2" d="M19.2787,22.469c-0.031,0.3535-0.3174,0.6396-0.6721,0.6775C14.307,23.6072,11,27.8408,11,32.994 c0,5.4608,3.7871,9.8877,8.4588,9.8877h32.248c5.1325,0,9.2932-4.6783,9.2932-10.4492c0-5.5305-3.8212-10.0575-8.6569-10.4251 c-0.37-0.0281-0.67-0.2871-0.7406-0.6494c-1.0803-5.5472-6.0636-9.7159-11.9553-9.7159c-3.829,0-7.2399,1.7335-9.4549,4.4912 c-0.2164,0.2695-0.5797,0.3929-0.8992,0.2589c-0.8523-0.3575-1.7525-0.5304-2.7597-0.5304 C22.7272,15.8618,19.6031,18.7665,19.2787,22.469z"/>
    <path fill="none" stroke="#000000" stroke-linecap="round" stroke-linejoin="round" stroke-miterlimit="10" stroke-width="1.8" d="M31.0827,42.8817l-3.7893,6.7541c-0.2732,0.2863-0.0517,0.7346,0.3629,0.7346h8.4435l-5.845,9.2144 c-0.3172,0.5,0.3444,1.0389,0.7699,0.6271l13.669-13.2268c0.2916-0.2821,0.0737-0.7475-0.35-0.7475h-8.1735l1.5388-3.3558 L31.0827,42.8817z"/>
  </g>
</svg>

<svg viewBox="0 0 72 72" xmlns="http://www.w3.org/2000/svg"><path fill="#b3b3b3" d="M68 4v64H4V4h64m4-4H0v72h72V0z"/><path fill="none" stroke="#00a5ff" stroke-miterlimit="10" stroke-width=".1" d="M12.923 10.958h46.154A1.923 1.923 0 0161 12.881v46.154a1.923 1.923 0 01-1.923 1.923H12.923A1.923 1.923 0 0111 59.035V12.881a1.923 1.923 0 011.923-1.923z"/><rect x="16" y="4" rx="2.254" width="40" height="64" fill="none" stroke="#00a5ff" stroke-miterlimit="10" stroke-width=".1"/><rect x="16" y="4" rx="2.254" width="40" height="64" transform="rotate(90 36 36)" fill="none" stroke="#00a5ff" stroke-miterlimit="10" stroke-width=".1"/><circle cx="36" cy="36" r="29" fill="none" stroke="#00a5ff" stroke-miterlimit="10" stroke-width=".1"/><path d="M19.279 22.469a.756.756 0 01-.672.677c-4.3.461-7.607 4.695-7.607 9.848 0 5.46 3.787 9.888 8.459 9.888h32.248c5.132 0 9.293-4.679 9.293-10.45 0-5.53-3.821-10.057-8.657-10.425a.805.805 0 01-.74-.649c-1.08-5.547-6.064-9.716-11.956-9.716-3.829 0-7.24 1.734-9.455 4.491-.216.27-.58.393-.899.26-.852-.358-1.752-.531-2.76-.531-3.806 0-6.93 2.905-7.254 6.607zm11.804 20.413l-3.79 6.754c-.273.286-.051.734.363.734H36.1l-5.845 9.215c-.317.5.344 1.039.77.627l13.669-13.227c.291-.282.073-.747-.35-.747H36.17l1.539-3.356h-6.626z" stroke-linecap="round" stroke-miterlimit="10" stroke-width="6" stroke="#fff" fill="none" stroke-linejoin="round"/><path fill="#FCEA2B" d="M31.083 42.882l-3.79 6.754c-.273.286-.051.734.363.734H36.1l-5.845 9.215c-.317.5.344 1.039.77.627l13.669-13.227c.291-.282.073-.747-.35-.747H36.17l1.539-3.356h-6.626z"/><path fill="#d0cfce" d="M19.279 22.469a.756.756 0 01-.672.677c-4.3.461-7.607 4.695-7.607 9.848 0 5.46 3.787 9.888 8.459 9.888h32.248c5.132 0 9.293-4.679 9.293-10.45 0-5.53-3.821-10.057-8.657-10.425a.805.805 0 01-.74-.649c-1.08-5.547-6.064-9.716-11.956-9.716-3.829 0-7.24 1.734-9.455 4.491-.216.27-.58.393-.899.26-.852-.358-1.752-.531-2.76-.531-3.806 0-6.93 2.905-7.254 6.607z"/><g fill="none" stroke="#000" stroke-linecap="round" stroke-linejoin="round" stroke-miterlimit="10"><path stroke-width="2" d="M19.279 22.469a.756.756 0 01-.672.677c-4.3.461-7.607 4.695-7.607 9.848 0 5.46 3.787 9.888 8.459 9.888h32.248c5.132 0 9.293-4.679 9.293-10.45 0-5.53-3.821-10.057-8.657-10.425a.805.805 0 01-.74-.649c-1.08-5.547-6.064-9.716-11.956-9.716-3.829 0-7.24 1.734-9.455 4.491-.216.27-.58.393-.899.26-.852-.358-1.752-.531-2.76-.531-3.806 0-6.93 2.905-7.254 6.607z"/><path stroke-width="1.8" d="M31.083 42.882l-3.79 6.754c-.273.286-.051.734.363.734H36.1l-5.845 9.215c-.317.5.344 1.039.77.627l13.669-13.227c.291-.282.073-.747-.35-.747H36.17l1.539-3.356h-6.626z"/></g></svg>
